X: 404
T: I'm a Silly Old Man   #2
B: Francis O'Neill: "The Dance Music of Ireland" (1907) #404
N: A variant of Greeneleeves? - Or are the similarities just a coincidence?
R: single jig
%S: s:3 b:13(5+4+4)
Z: Frank Nordberg - http://www.musicaviva.com
F: http://www.musicaviva.com/abc/tunes/ireland/oneill-1001/0404/oneill-1001-0404-1.abc
M: 6/8
L: 1/8
K: Gm
"^A"|:\
A | B2B (Bc)(d | c2A) A2c | B2G [1,3 GAB | AFD D2 :|[2,4 AG^F | G3 G2 :|
"^B"|:\
=e | f2d d=e^f | (g2d) c2A | G2g g^fg | afd d2 ||
=e | fga gfe | fed (c2A) | G2B AG^F | G3 G2 :|
